src/pos-icons/chess-queen.svg

<svg height="24" viewBox="0 0 24 24" width="24" xmlns="http://www.w3.org/2000/svg"><path d="m18 3a2 2 0 0 1 2 2c0 .81-.5 1.5-1.17 1.82l-1.83 6.33v4.85h-10v-4.85l-1.83-6.33c-.67-.32-1.17-1.01-1.17-1.82a2 2 0 0 1 2-2 2 2 0 0 1 2 2c0 .5-.18.95-.5 1.3l2.8 3.05.53-3.73c-.5-.36-.83-.95-.83-1.62a2 2 0 0 1 2-2 2 2 0 0 1 2 2c0 .67-.33 1.26-.83 1.62l.53 3.73 2.77-3.06c-.29-.35-.47-.79-.47-1.29a2 2 0 0 1 2-2m-13 17h14v2h-14z"/></svg>

<?xml version="1.0" encoding="UTF-8"?><!DOCTYPE svg PUBLIC "-//W3C//DTD SVG 1.1//EN" "http://www.w3.org/Graphics/SVG/1.1/DTD/svg11.dtd"><svg xmlns="http://www.w3.org/2000/svg" xmlns:xlink="http://www.w3.org/1999/xlink" version="1.1" id="mdi-chess-queen" width="24" height="24" viewBox="0 0 24 24"><path d="M18,3A2,2 0 0,1 20,5C20,5.81 19.5,6.5 18.83,6.82L17,13.15V18H7V13.15L5.17,6.82C4.5,6.5 4,5.81 4,5A2,2 0 0,1 6,3A2,2 0 0,1 8,5C8,5.5 7.82,5.95 7.5,6.3L10.3,9.35L10.83,5.62C10.33,5.26 10,4.67 10,4A2,2 0 0,1 12,2A2,2 0 0,1 14,4C14,4.67 13.67,5.26 13.17,5.62L13.7,9.35L16.47,6.29C16.18,5.94 16,5.5 16,5A2,2 0 0,1 18,3M5,20H19V22H5V20Z" /></svg>
